X:1
T:I. O Magnum Mysterium
T:I. O Magnum Mysterium
T:5ème répons des matines de Noël pour chœur a capella 
T:Francis Poulenc
C:Francis Poulenc
%%score [ 1 2 3 4 ]
L:1/8
Q:1/4=50
M:3/4
K:C
V:1 treble nm="Sopranos" snm="S."
V:2 treble nm="Altos" snm="A."
V:3 treble-8 nm="Tenors" snm="T."
V:4 bass nm="Basses" snm="B."
V:1
"^O magnum mysterium, et admirabile\nsacramentum, ut animalia viderent Dominum\nnatum, jacentem in præsepio. Beata Virgo\ncujus viscera meruerunt portare Dominum\nChristum.\n""^Très calme et doux" z6 | %1
w: |
 z6 | z6 | z6 | z6 |"^1"!ppp! f2 (_e _d) c _B | f c c2- c/ z/ c | _B c _d f _e z | _B =A c2 F z | %9
w: ||||O ma- * gnum mys-|te- ri- um _ et|ad- mi- ra- bi- le|sa- cra- men- tum|
!mf!"^2" _d2 c d _e _B | c/ z/ _d _G2 F z |!p! _E F _G _B A2- | %12
w: ut a- ni- ma- li-|a vi- de- rent|do- mi- num na- tum|
[M:4/4] A/ z/!f! _B c2 _d z!>(! B c |[M:3/4] F3 F!>)!!pp! F z |!ppp!"^3" f2 (_e _d) c _B | %15
w: _ ja- cen- tem in prae-|se- pi- o|O ma- * gnum mys-|
 f c c2- c/ z/ c | =B c _e =d _A z | G c B2 B z |!mf! _e2 d ^f g e | d/ z/ _e _B2 A z | %20
w: te- ri- um _ et|ad- mi- ra- bi- le|sa- cra- men- tum|ut a- ni- ma- li-|a vi- de- rent|
!p! ^F G F G A2- |"^4" A/ z/!f! _B c2 d z |[M:4/4] c _B A A!p!!>(! A2- A/!>)! z/ z | z8 | %24
w: Do- mi- num na- tum|_ ja- cen- tem|in præ- se- pi- o _||
[M:5/4] z10 |!pp!"_bouche fermée\nbien en dehors\n" (^f2 ^G2 B2 ^d2 _B2- | %26
w: ||
[M:3/4] B/) z/!p! g _g2 f z | z6 |!ppp!"^5" f2 (_e_d) c _B | f _c c2- c/ z/ c | _B _e _g f e z | %31
w: * Be- a- ta||O ma- * gnun mys-|te- ri- um _ et|ad- mi- ra- bi- le|
 _B =A c2 c z |!mf! _d2 c d _e _B | c/ z/ _d _G2 F z |!p! _E F _G _B A2- | %35
w: sa- cra- men- tum|ut a- ni- ma- li-|a vi- de- rent|Do- mi- num na- tum|
"^6" A/ z/!mf! _B c2 _d2- |!f! _d/ z/ d _e2 f2- | %37
w: _ ja- cen- tem|_ ja- cen- tem|
[M:4/4] f/ z/!ff! _B"^court" !fermata!f2 _e z!p! c B |[M:3/4] F4 F2 | %39
w: _ ja- cen- tem in præ-|se- pi-|
"^court"!>(! !fermata!F4-!>)!!pp! F z |] %40
w: o. _|
V:2
!ppp! z2 _D3 D | _D2- D/ z/ D D =D | _D2- D/ z/ D =C D | =D _D =E z D =B, | C2 C2- C z | %5
w: O ma-|gnum _ mys- te- ri-|um, _ et ad- mi-|ra- bi- le sa- cra-|men- tum _|
"^à peine articulé" F4 F2 | F2 F2- F/ z/ F | F2 _G2 F z | F2 F2- F z | F2 _A2 F2 | %10
w: mys- te-|ri- um, _ mys-|te- ri- um|ma- gnum _|a- ma- li-|
 _E/ z/ F _D2 C z | _D C =D _E F2- |[M:4/4] F/ z/ F _A2 A z F _E |[M:3/4] C3 C C z | F4 F2 | %15
w: a vi- de- rent|do- mi- num na- tum|_ ja- cen- tem in prae-|se- pi- o|mys- te-|
 F2 F2- F/ z/ F | G2 F2 D z | C D G2 G z | A2 A2 A G | A/ z/ _B _E2 D z | D _E D E D2- | %21
w: ri- um _ mys-|te- ri- um|sa- cra- men- tum|a- ni- ma- li|a vi- de- rent|Do- mi- num na- tum|
 D/ z/ D A2 F z |[M:4/4] G D G =E ^F2- F/ z/ z | %23
w: _ ja- cen- tem|in præ- se- pi- o _|
"_bouche fermée\ndoucement en dehors\n" ([EB]2!p! [Gd]2 [^FB]2 [B,G]) z | %24
w: _ _ _ _|
[M:5/4] ([^Fd]2 [EA]2 [DB]2 [B,d]2 [^CA]/) z/!mf! ^F | ^A2 ^D2 ^F ^A, ^G, ^D _B,2- | %26
w: * * * * * por-|ta- re Do- mi- num Chris- tum|
[M:3/4] B,/ z/!p! _B c2 B z |!mf! (_G_E)!>(! C2- C!>)! z |"^à peine articulé\n" F4 F2 | %29
w: _ Be- a- ta|vir- * go _|mys- te-|
 _A2 A2- A/ z/ A | _E2 E2 E z | _E2 =A,2- A, z | F2 !courtesy!=A2 F2 | _E/ z/ F _D2 C z | %34
w: ri- um _ sa-|cra- men- tum|ma- gnum _|a- ma- li-|a vi- de- rent|
 _D C D _E F2- | F/ z/ F _A2 A2- | _A/ z/ A c2 A2- |[M:4/4] A/ z/ F !fermata!_D2 D z F2 | %38
w: Do- mi- num na- tum|_ ja- cen- tem|_ ja- cen- tem|_ ja- cen- tem præ-|
[M:3/4] C4 C2 | !fermata!D4- D z |] %40
w: se- pi-|o. _|
V:3
!ppp! z2 F3 F | F2- F/ z/ F F _c | F2- F/ z/ F A F | _c F A z F F | _B2 A2- A z | %5
w: O ma-|gnum _ mys- te- ri-|um, _ et ad- mi|ra- bi- le sa- cra-|men- tum _|
"^à peine articulé" _d4 d2 | (c2 _dc _B/) z/ c | _d2 f2 _B z | _d c _B2 A z | _d _e f2 _B2 | %10
w: mys- te|ri- * * um, myst|te- ri- um|sa- cra- men- tum|a- ni- ma- li-|
 c/ z/ _d _B2 A z | _B A B B c2- |[M:4/4] c/ z/ _d _e2 f z d f |[M:3/4] _B3 =G A z | _d4 d2 | %15
w: a vi- de- rent|do- mi- num na- tum|_ ja- cen- tem in prae-|se- pi- o|mys- te-|
 (c2 _dc _B/) z/ c | =d2 c2 =B z | G _A d2 d z | (_ef) ^f2 d e | ^f/ z/ g c2 A z | c _d c d c2- | %21
w: ri- * * um mys-|te- ri- um|sa- cra- men- tum|a- * ni- ma- li|a vi- de- rent|Do- mi- num na- tum|
 c/ z/ _B c2 d z |[M:4/4] d _e A2 d2- d/ z/!mf! d | ^f2 B2 (d^F) E z | %24
w: _ ja- cen- tem|præ- se- pi- o _ Be-|a- ta vir- * go|
[M:5/4] B d ^c A B/ z/ B c d e z |"_bouche fermée\n\n" (^d2 B2 d2 B2 =d2- | %26
w: cu- jus vis- ce- ra me- ru- e- runt||
[M:3/4] d/) z/!p! _e a2 =d z |!mf! _B2!>(! (B2 A)!>)! z |"^à peine articulé\n" _d4 d2 | %29
w: ||mys- te-|
 (_c_d) =d2- d/ z/ d | _g2 _G2 g z | (c_G) _g2- g z | _d _e f2 _B2 | c/ z/ _d _B2 A z | %34
w: ri- * um _ sa-|cra- men- tum|ma- * gnum _|a- ni- ma- li-|a vi- de- rent|
!p! _B A B B c2- | c/ z/!mf! _d _e2 f2- | f/ z/ f _a2 f2- |[M:4/4] f/ z/ _d !fermata!_g2 g z _B c | %38
w: Do- mi- num na- tum|_ ja- cen- tem|_ ja- cen- tem|_ ja- cen- tem in præ-|
[M:3/4] _B4 A2 |!>(! !fermata!_B4-!>)! B z |] %40
w: se- pi-|o. _|
V:4
!ppp! z2 _B,,3 B,, | _B,,2- B,,/ z/ B,, B,, G,, | _B,,2- B,,/ z/ B,, B,, B,, | %3
w: O ma-|gnum _ mys- te- ri-|um, _ et * mi-|
 G,, _B,, _D, z B,, D, | F,2 F,2- F, z |"^à peine articulé" _B,,4 _B,2 | _A,4- A,/ z/ A, | %7
w: ra- bi- le sa- cra-|men- tum _|O ma-|gnum _ myst|
 _G,2 _E,2 G, z | _G,2 F,2- F, z | _B,2 F,2 _G,2 | _A,/ z/ _B, _E,2 F, z | _G, F, _E, G, F,2- | %12
w: te- ri- um|ma- gnum _|a- ma- li-|a vi- de- rent|do- mi- num na- tum|
[M:4/4] F,/ z/ _B, _A,2 _D z B, _G, |[M:3/4] F,3 F, F, z | _B,,4 _B,2 | _A,4- A,/ z/ A, | %16
w: _ ja- cen- tem in prae-|se- pi- o|O ma-|gnum _ mys-|
 G,2 _A,2 =B, z | _E, F, G,2 G, z | C2 C2 _B, C | D/ z/ C G,2 ^F, z | A, _B, A, B, ^F,2- | %21
w: te- ri- um|sa- cra- men- tum|a- ni- ma- li|a vi- de- rent|Do- mi- num na- tum|
 F,/ z/ G, =F,2 _B, z |[M:4/4] _E, C, D,2 D,2- D,/ z/ z | G,2 ^F,2 E,2 D, z | %24
w: _ ja- cen- tem|præ- se- pi- o _|a- ta vir- go|
[M:5/4] G,2 G,2 G,,2 G,2 G, z |"_bouche fermée\n\n" (B,2 ^A,2 ^G,2 ^F, G, _B,2- | %26
w: Be- a- ta vir- go||
[M:3/4] B,/) z/ z z4 |!mf! (_E,_G,)!>(! F,2- F,!>)! z |"^à peine articulé\n" _B,,4 _B,2 | %29
w: |vir- * go _|mys- te-|
 _B,2 B,2- B,/ z/ B, | _B,,2 _B,2 B, z | _B,,2 _B,2- B, z | _B,2 F,2 _G,2 | _A,/ z/ _B, _E,2 F, z | %34
w: ri- um _ sa-|cra- men- tum|ma- gnum _|a- ma- li-|a vi- de- rent|
 _G, F, _E, G, F,2- | F,/ z/ _B, _A,2 _D2- | _D/ z/ D _A,2 D2- | %37
w: Do- mi- num na- tum|_ ja- cen- tem|_ ja- cen- tem|
[M:4/4] D/ z/ _B, !fermata!_E,2 E, z _G,2 |[M:3/4] F,4 F,2 | !fermata!_B,,4- B,, z |] %40
w: _ ja- cen- tem præ-|se- pi-|o. _|

